X: 9169
T: Dálaigh's
R: polka
M: 2/4
K: Aminor
eA A/B/c/d/|ed Bd|eA AB|GB GB|
eA A/B/c/d/|ed Bd|eA gB|BA e2:|
|:ea ag/a/|ba ge|ea ag/a/|ba g2|
ea ag/a/|ba ge|dB gB|1 BA e2:|2 BA A2||

